src/pos-icons/table-search.svg

<svg height="24" viewBox="0 0 24 24" width="24" xmlns="http://www.w3.org/2000/svg"><path d="m19.3 17.89c1.32-2.1.7-4.89-1.41-6.21-2.1-1.32-4.89-.68-6.21 1.41-1.32 2.11-.68 4.91 1.41 6.21 1.47.92 3.33.92 4.8 0l3.11 3.09 1.39-1.39zm-2-.62c-.98.98-2.56.97-3.54 0-.97-.98-.97-2.56.01-3.54.97-.97 2.55-.97 3.53 0 .96.99.95 2.57-.03 3.54zm1.7-13.27h-14a2 2 0 0 0 -2 2v12a2 2 0 0 0 2 2h5.81c-.56-.58-1.01-1.26-1.31-2h-4.5v-4h4.18c.16-.71.43-1.39.82-2h-5v-4h6v2.81c.58-.56 1.26-1.01 2-1.31v-1.5h6v2c.4.25.77.55 1.1.88.34.34.64.71.9 1.12v-6a2 2 0 0 0 -2-2z"/></svg>

<?xml version="1.0" encoding="UTF-8"?><!DOCTYPE svg PUBLIC "-//W3C//DTD SVG 1.1//EN" "http://www.w3.org/Graphics/SVG/1.1/DTD/svg11.dtd"><svg xmlns="http://www.w3.org/2000/svg" xmlns:xlink="http://www.w3.org/1999/xlink" version="1.1" id="mdi-table-search" width="24" height="24" viewBox="0 0 24 24"><path d="M19.3,17.89C20.62,15.79 20,13 17.89,11.68C15.79,10.36 13,11 11.68,13.09C10.36,15.2 11,18 13.09,19.3C14.56,20.22 16.42,20.22 17.89,19.3L21,22.39L22.39,21L19.3,17.89M17.3,17.27C16.32,18.25 14.74,18.24 13.76,17.27C12.79,16.29 12.79,14.71 13.77,13.73C14.74,12.76 16.32,12.76 17.3,13.73C18.26,14.72 18.25,16.3 17.27,17.27H17.3M19,4H5A2,2 0 0,0 3,6V18A2,2 0 0,0 5,20H10.81C10.25,19.42 9.8,18.74 9.5,18H5V14H9.18C9.34,13.29 9.61,12.61 10,12H5V8H11V10.81C11.58,10.25 12.26,9.8 13,9.5V8H19V10C19.4,10.25 19.77,10.55 20.1,10.88C20.44,11.22 20.74,11.59 21,12V6A2,2 0 0,0 19,4Z" /></svg>
